img/pets/double-left_arrow.svg

<svg width="25" height="11" viewBox="0 0 25 11" fill="none" xmlns="http://www.w3.org/2000/svg">
<path d="M9.94687 10.7852L0.913671 6.08789V4.98438L9.94687 0.287109V1.625L2.43711 5.53125L9.94687 9.44727V10.7852ZM24.018 10.7852L14.9848 6.08789V4.98438L24.018 0.287109V1.625L16.5082 5.53125L24.018 9.44727V10.7852Z" fill="#CDCDCD"/>
</svg>

<svg width="25" height="11" fill="none" xmlns="http://www.w3.org/2000/svg"><path d="M9.947 10.785.914 6.088V4.984L9.947.287v1.338l-7.51 3.906 7.51 3.916v1.338Zm14.071 0-9.033-4.697V4.984L24.018.287v1.338l-7.51 3.906 7.51 3.916v1.338Z" fill="#CDCDCD"/></svg>
